app/assets/images/icons/active/tag.svg

<?xml version="1.0" encoding="UTF-8" standalone="no"?>
<svg width="32px" height="232px" viewBox="0 0 32 232" version="1.1" xmlns="http://www.w3.org/2000/svg" xmlns:xlink="http://www.w3.org/1999/xlink" xmlns:sketch="http://www.bohemiancoding.com/sketch/ns">
    <title>tag</title>
    <description>Created with Sketch (http://www.bohemiancoding.com/sketch)</description>
    <defs></defs>
    <g id="Graphics" stroke="none" stroke-width="1" fill="none" fill-rule="evenodd" sketch:type="MSPage">
        <path d="M28.4565,135.1285 C28.4845,134.9765 28.5015,134.8185 28.5015,134.6595 L28.5015,126.5965 C28.5015,125.1695 27.3315,123.9995 25.9045,123.9995 L17.8415,123.9995 C17.6815,123.9995 17.5255,124.0155 17.3725,124.0445 C16.6895,124.0295 15.9995,124.2815 15.4825,124.7995 L4.2575,136.0255 C3.2475,137.0335 3.2475,138.6865 4.2575,139.6955 L12.8045,148.2425 C13.8145,149.2525 15.4665,149.2525 16.4765,148.2425 L27.7015,137.0195 C28.2185,136.5005 28.4705,135.8125 28.4565,135.1285 C28.4565,135.1285 28.4705,135.8125 28.4565,135.1285 L28.4565,135.1285 L28.4565,135.1285 Z M20.4925,132.0095 C19.3945,130.9125 19.3945,129.1345 20.4925,128.0375 C21.5875,126.9395 23.3675,126.9395 24.4625,128.0375 C25.5605,129.1345 25.5605,130.9125 24.4625,132.0095 C23.3675,133.1075 21.5875,133.1075 20.4925,132.0095 L20.4925,132.0095 Z M20.4925,132.0095" id="tag--white" fill="#206FAC" sketch:type="MSShapeGroup"></path>
        <path d="M28.4565,95.1285 C28.4845,94.9765 28.5015,94.8185 28.5015,94.6595 L28.5015,86.5965 C28.5015,85.1695 27.3315,83.9995 25.9045,83.9995 L17.8415,83.9995 C17.6815,83.9995 17.5255,84.0155 17.3725,84.0445 C16.6895,84.0295 15.9995,84.2815 15.4825,84.7995 L4.2575,96.0255 C3.2475,97.0335 3.2475,98.6865 4.2575,99.6955 L12.8045,108.2425 C13.8145,109.2525 15.4665,109.2525 16.4765,108.2425 L27.7015,97.0195 C28.2185,96.5005 28.4705,95.8125 28.4565,95.1285 C28.4565,95.1285 28.4705,95.8125 28.4565,95.1285 L28.4565,95.1285 L28.4565,95.1285 Z M20.4925,92.0095 C19.3945,90.9125 19.3945,89.1345 20.4925,88.0375 C21.5875,86.9395 23.3675,86.9395 24.4625,88.0375 C25.5605,89.1345 25.5605,90.9125 24.4625,92.0095 C23.3675,93.1075 21.5875,93.1075 20.4925,92.0095 L20.4925,92.0095 Z M20.4925,92.0095" id="tag--subdued-grey" fill="#FFFFFF" sketch:type="MSShapeGroup"></path>
        <path d="M28.4565,55.1285 C28.4845,54.9765 28.5015,54.8185 28.5015,54.6595 L28.5015,46.5965 C28.5015,45.1695 27.3315,43.9995 25.9045,43.9995 L17.8415,43.9995 C17.6815,43.9995 17.5255,44.0155 17.3725,44.0445 C16.6895,44.0295 15.9995,44.2815 15.4825,44.7995 L4.2575,56.0255 C3.2475,57.0335 3.2475,58.6865 4.2575,59.6955 L12.8045,68.2425 C13.8145,69.2525 15.4665,69.2525 16.4765,68.2425 L27.7015,57.0195 C28.2185,56.5005 28.4705,55.8125 28.4565,55.1285 C28.4565,55.1285 28.4705,55.8125 28.4565,55.1285 L28.4565,55.1285 L28.4565,55.1285 Z M20.4925,52.0095 C19.3945,50.9125 19.3945,49.1345 20.4925,48.0375 C21.5875,46.9395 23.3675,46.9395 24.4625,48.0375 C25.5605,49.1345 25.5605,50.9125 24.4625,52.0095 C23.3675,53.1075 21.5875,53.1075 20.4925,52.0095 L20.4925,52.0095 Z M20.4925,52.0095" id="tag--body-grey" fill="#67737B" sketch:type="MSShapeGroup"></path>
        <path d="M28.4565,15.1285 C28.4845,14.9765 28.5015,14.8185 28.5015,14.6595 L28.5015,6.5965 C28.5015,5.1695 27.3315,3.9995 25.9045,3.9995 L17.8415,3.9995 C17.6815,3.9995 17.5255,4.0155 17.3725,4.0445 C16.6895,4.0295 15.9995,4.2815 15.4825,4.7995 L4.2575,16.0255 C3.2475,17.0335 3.2475,18.6865 4.2575,19.6955 L12.8045,28.2425 C13.8145,29.2525 15.4665,29.2525 16.4765,28.2425 L27.7015,17.0195 C28.2185,16.5005 28.4705,15.8125 28.4565,15.1285 C28.4565,15.1285 28.4705,15.8125 28.4565,15.1285 L28.4565,15.1285 L28.4565,15.1285 Z M20.4925,12.0095 C19.3945,10.9125 19.3945,9.1345 20.4925,8.0375 C21.5875,6.9395 23.3675,6.9395 24.4625,8.0375 C25.5605,9.1345 25.5605,10.9125 24.4625,12.0095 C23.3675,13.1075 21.5875,13.1075 20.4925,12.0095 L20.4925,12.0095 Z M20.4925,12.0095" id="tag--title-grey" fill="#3A434E" sketch:type="MSShapeGroup"></path>
    </g>
</svg>

<svg width="32" height="232" viewBox="0 0 32 232" xmlns="http://www.w3.org/2000/svg" xmlns:sketch="http://www.bohemiancoding.com/sketch/ns"><title>tag</title><g sketch:type="MSPage" fill="none"><path d="M28.456 135.129c.028-.152.045-.31.045-.469v-8.063c0-1.427-1.17-2.597-2.597-2.597h-8.063c-.16 0-.316.016-.469.045-.683-.015-1.373.237-1.89.755l-11.225 11.226c-1.01 1.008-1.01 2.661 0 3.67l8.547 8.547c1.01 1.01 2.662 1.01 3.672 0l11.225-11.223c.517-.519.769-1.207.755-1.891zm-7.964-3.119c-1.098-1.097-1.098-2.875 0-3.972 1.095-1.098 2.875-1.098 3.97 0 1.098 1.097 1.098 2.875 0 3.972-1.095 1.098-2.875 1.098-3.97 0zm0 0" fill="#206FAC" sketch:type="MSShapeGroup"/><path d="M28.456 95.129c.028-.152.045-.31.045-.469v-8.063c0-1.427-1.17-2.597-2.597-2.597h-8.063c-.16 0-.316.016-.469.045-.683-.015-1.373.237-1.89.755l-11.225 11.226c-1.01 1.008-1.01 2.661 0 3.67l8.547 8.547c1.01 1.01 2.662 1.01 3.672 0l11.225-11.223c.517-.519.769-1.207.755-1.891zm-7.964-3.119c-1.098-1.097-1.098-2.875 0-3.972 1.095-1.098 2.875-1.098 3.97 0 1.098 1.097 1.098 2.875 0 3.972-1.095 1.098-2.875 1.098-3.97 0zm0 0" fill="#fff" sketch:type="MSShapeGroup"/><path d="M28.456 55.129c.028-.152.045-.31.045-.469v-8.063c0-1.427-1.17-2.597-2.597-2.597h-8.063c-.16 0-.316.016-.469.045-.683-.015-1.373.237-1.89.755l-11.225 11.226c-1.01 1.008-1.01 2.661 0 3.67l8.547 8.547c1.01 1.01 2.662 1.01 3.672 0l11.225-11.223c.517-.519.769-1.207.755-1.891zm-7.964-3.119c-1.098-1.097-1.098-2.875 0-3.972 1.095-1.098 2.875-1.098 3.97 0 1.098 1.097 1.098 2.875 0 3.972-1.095 1.098-2.875 1.098-3.97 0zm0 0" fill="#67737B" sketch:type="MSShapeGroup"/><path d="M28.456 15.129c.028-.152.045-.31.045-.469v-8.063c0-1.427-1.17-2.597-2.597-2.597h-8.063c-.16 0-.316.016-.469.045-.683-.015-1.373.237-1.89.755l-11.225 11.226c-1.01 1.008-1.01 2.661 0 3.67l8.547 8.547c1.01 1.01 2.662 1.01 3.672 0l11.225-11.223c.517-.519.769-1.207.755-1.891zm-7.964-3.119c-1.098-1.097-1.098-2.875 0-3.972 1.095-1.098 2.875-1.098 3.97 0 1.098 1.097 1.098 2.875 0 3.972-1.095 1.098-2.875 1.098-3.97 0zm0 0" fill="#3A434E" sketch:type="MSShapeGroup"/></g></svg>
